assets/arrow_forward.svg

<svg fill="none" height="14" viewBox="0 0 16 14" width="16" xmlns="http://www.w3.org/2000/svg"><path d="m9.74806 13.6979c.66994-.6699 1.33994-1.3399 2.01254-2.0125l3.9381-3.93809c.0923-.09232.1635-.19783.211-.31125.0633-.14243.0923-.29542.0897-.44841-.0027-.2664-.1029-.53545-.3034-.73327-.6699-.66997-1.3399-1.33995-2.0125-2.01256l-3.93544-3.93806c-.39037-.3903773-1.10783-.419392-1.49293 0-.38774.42203-.41675 1.07618 0 1.49293l4.14647 4.14644h-9.37436c-.55128 0-1.10519-.00791-1.65647 0h-.02374c-.551271 0-1.081446.48534-1.055069 1.05508.026377.57237.464233 1.05507 1.055079 1.05507h11.05986c-.0713.07122-.1425.14243-.2137.21365l-3.20479 3.20477c-.2453.2453-.48797.488-.73328.7333-.39037.3904-.41939 1.1078 0 1.4929.42203.3878 1.07618.4168 1.49293 0z" fill="#191919"/></svg>

<svg width="16" height="14" viewBox="0 0 16 14" fill="none" xmlns="http://www.w3.org/2000/svg">
<path d="M9.74806 13.6979C10.418 13.028 11.088 12.358 11.7606 11.6854L15.6987 7.74731C15.791 7.65499 15.8622 7.54948 15.9097 7.43606C15.973 7.29363 16.002 7.14064 15.9994 6.98765C15.9967 6.72125 15.8965 6.4522 15.696 6.25438C15.0261 5.58441 14.3561 4.91443 13.6835 4.24182L9.74806 0.30376C9.35769 -0.0866173 8.64023 -0.115632 8.25513 0.30376C7.86739 0.72579 7.83838 1.37994 8.25513 1.79669L12.4016 5.94313L3.02724 5.94313C2.47596 5.94313 1.92205 5.93522 1.37077 5.94313L1.34703 5.94313C0.795759 5.94313 0.265584 6.42847 0.291961 6.99821C0.318338 7.57058 0.756194 8.05328 1.34704 8.05328L12.4069 8.05328C12.3356 8.1245 12.2644 8.19571 12.1932 8.26693L8.98841 11.4717C8.74311 11.717 8.50044 11.9597 8.25513 12.205C7.86476 12.5954 7.83574 13.3128 8.25513 13.6979C8.67716 14.0857 9.33131 14.1147 9.74806 13.6979Z" fill="#191919"/>
</svg>
